X: 346
T: Mindra Mea De La Ciugud
B: incoming
M:3/4
L:1/8
Q: 1/4=84
K:G
V:1 
  G>A B>A G>D             | (3EED D2 d2 | d/e/d/c/ B/cB/ A/BA/   | G4 z2    |
V:2 
  G2 G2 GB                | C2 G2 ^G2   | A2 D2 EF               | G2 G2 G2 |
W: VIFD (Vancouver International Folk Dancers) Music Books by Deborah Jones
% abcbook-tune_id 63cb08432deda9d29186c648
% abcbook-tune_composer_id 
% abcbook-boost 0
% abcbook-difficulty 0
% abcbook-tags balkan dances
% abcbook-tablature 
% abcbook-transpose 
% abcbook-tuning 
% abcbook-lastupdated 1674250307968
% abcbook-soundfonts 
% abcbook-repeats 1


